X: 365
T: Ashland Breakdown
C:Bill Monroe
B: jims roots
M:4/4
L:1/8
Q: 1/4=100
K:C
V:1 
%Q:460
|: "C"[ca][cc'] z[ca][c3c']a | c'e ac' [g4c4] | "Am"[a3c3]b a2 g2 | "C"e2 g6 | [ca][cc'] z[ca][c3c']a | c'e ac' g3d |
"G"eg ag ed ce | "C"d2 c6 :|: [P:B Part] e2 ee g2 gg | ga ge de dc | "F"A2 A2 AG F2 |
"C"[c2E2] [c2G2] [cG][cG] [cG][cG] | e2 ee g2 gg | ga ge de dc | "G"GA ce dc Ac |
"C"d2 c2 [ec][ec] [ec][ec] :|:[P:C Part] [c3E3]G [c2E2] EF | GE CE DC A,C | G,A, B,C DF DF |
EF [c2G2] [cG][cG] [cG][cG] | [c3E3]G [c2E2] EF | GE CE DC A,C | G,A, CA, "G"DC A,C |
"C"D2 [E6C6] :|
% abcbook-tune_id 6298c245dd5c98b4202c81f5


% abcbook-boost 0
% abcbook-tablature 
% abcbook-transpose 
% abcbook-lastupdated 1654178373214
% abcbook-soundfonts 
% abcbook-repeats 1


